storage/app/icons/tabler/filled/file-unknown.svg

<!--
unicode: "10193"
version: "3.35"
-->
<svg
  xmlns="http://www.w3.org/2000/svg"
  width="24"
  height="24"
  viewBox="0 0 24 24"
  fill="currentColor"
>
  <path d="M12 2l.117 .007a1 1 0 0 1 .876 .876l.007 .117v4l.005 .15a2 2 0 0 0 1.838 1.844l.157 .006h4l.117 .007a1 1 0 0 1 .876 .876l.007 .117v9a3 3 0 0 1 -2.824 2.995l-.176 .005h-10a3 3 0 0 1 -2.995 -2.824l-.005 -.176v-14a3 3 0 0 1 2.824 -2.995l.176 -.005zm0 15a1 1 0 0 0 -.993 .883l-.007 .127a1 1 0 0 0 1.993 .117l.007 -.127a1 1 0 0 0 -1 -1m1.136 -5.727a2.5 2.5 0 0 0 -3.037 .604a1 1 0 0 0 1.434 1.389l.088 -.09a.5 .5 0 1 1 .379 .824a1 1 0 0 0 -.002 2a2.5 2.5 0 0 0 1.137 -4.727" />
  <path d="M19 7h-4l-.001 -4.001z" />
</svg>

<svg xmlns="http://www.w3.org/2000/svg" width="24" height="24" fill="currentColor" viewBox="0 0 24 24"><path d="m12 2 .117.007a1 1 0 0 1 .876.876L13 3v4l.005.15a2 2 0 0 0 1.838 1.844L15 9h4l.117.007a1 1 0 0 1 .876.876L20 10v9a3 3 0 0 1-2.824 2.995L17 22H7a3 3 0 0 1-2.995-2.824L4 19V5a3 3 0 0 1 2.824-2.995L7 2zm0 15a1 1 0 0 0-.993.883L11 18.01a1 1 0 0 0 1.993.117L13 18a1 1 0 0 0-1-1m1.136-5.727a2.5 2.5 0 0 0-3.037.604 1 1 0 0 0 1.434 1.389l.088-.09A.5.5 0 1 1 12 14a1 1 0 0 0-.002 2 2.5 2.5 0 0 0 1.137-4.727"/><path d="M19 7h-4l-.001-4.001z"/></svg>
